X:1
T:Good-Night, Ladies
T:Good-Night, Ladies
T:College song
%%score [ 1 2 3 4 ]
L:1/8
M:4/4
K:C
V:1 treble-8 nm="Tenor"
V:2 treble-8 nm="Tenor"
V:3 bass nm="Baryton"
V:4 bass nm="Bass"
V:1
 e4 c4 | G/ c3/2- c4 z2 | e4 c4 | d/ d3/2- d4 z2 | e4 c4 | f/ f3/2- f4 z f | e3 c d3 B | c6 z2 || %8
w: Good- Night,|La- dies! _|Good- Night|La- dies! _|Good- Night|La- dies! _ We're|goin' to leave you|now.|
 e3/2 d/ c3/2 d/ e e e z | d d d z e e e z | e3/2 d/ c3/2 d/ e e e z | d/ d/ d e d c2 z2 |] %12
w: Mer- ri- ly we roll a- long,|Roll a- long, roll a- long,|Mer- ri- ly we roll a- long,|O- ver the dark blue sea.|
V:2
 c4 G4 | G/ G3/2- G4 z2 | c4 c4 | B/ B3/2- B4 z2 | c4 c4 | c/ c3/2- c4 z c | c3 G G3 G | G6 z2 || %8
w: Good- Night,|La- dies! _|Good- Night|La- dies! _|Good- Night|La- dies! _ We're|goin' to leave you|now.|
 c3/2 c/ c3/2 c/ c c c z | B B B z c c c z | c3/2 c/ c3/2 c/ c c c z | G/ G/ G G G G2 z2 |] %12
w: Mer- ri- ly we roll a- long,|Roll a- long, roll a- long,|Mer- ri- ly we roll a- long,|O- ver the dark blue sea.|
V:3
 G,4 E,4 | E,/ E,3/2- E,4 z2 | G,4 E,4 | G,/ G,3/2- G,4 z2 | G,4 _B,4 | A,/ A,3/2- A,4 z A, | %6
w: Good- Night,|La- dies! _|Good- Night|La- dies! _|Good- Night|La- dies! _ We're|
 G,3 E, F,3 F, | E,6 z2 || G,3/2 F,/ E,3/2 F,/ G, G, G, z | G, G, G, z G, G, G, z | %10
w: goin' to leave you|now.|Mer- ri- ly we roll a- long,|Roll a- long, roll a- long,|
 G,3/2 F,/ E,3/2 F,/ G, G, G, z | F,/ F,/ F, G, F, E,2 z2 |] %12
w: Mer- ri- ly we roll a- long,|O- ver the dark blue sea.|
V:4
 C,4 C,4 | C,/ C,3/2- C,4 z2 | C,4 C,4 | G,/ G,3/2- G,4 z2 | C,4 C,4 | F,/ F,3/2- F,4 z F, | %6
w: Good- Night,|La- dies! _|Good- Night|La- dies! _|Good- Night|La- dies! _ We're|
 G,3 G, G,,3 G,, | C,6 z2 || C,3/2 C,/ C,3/2 C,/ C, C, C, z | G,, G,, G,, z C, C, C, z | %10
w: goin' to leave you|now.|Mer- ri- ly we roll a- long,|Roll a- long, roll a- long,|
 C,3/2 C,/ C,3/2 C,/ C, C, C, z | %11
w: Mer- ri- ly we roll a- long,|
"_2. Farewell, ladies....\n3. Sweet dreams, ladies..." G,,/ G,,/ G,, G,, G,, C,2 z2 |] %12
w: O- ver the dark blue sea.|

